X:1
T:After
T:After
T:Anonymous, 1891
T:George Coles Stebbins
T:Public Domain Courtesy of the Cyber Hymnal™
C:Anonymous, 1891
Z:Public Domain
Z:Courtesy of the Cyber Hymnal™
%%score ( 1 2 ) ( 3 4 )
L:1/8
Q:1/4=92
M:6/8
K:Bb
V:1 treble 
V:2 treble 
V:3 bass 
V:4 bass 
V:1
 [DF][B,D][CE] [DF]2 [EG] | [DF]3 [DB]2 [FB] | [FB][EA][DB] [Ec]2 [CA] | [DB]3- [DB]2 z | %4
w: 1.~Af- ter the toil and|trou- ble, There|com- eth a day of|rest; *|
w: 2.~Af- ter the night of|dark- ness, The|sha- dows all flee a-|way; *|
w: 3.~Af- ter the hours of|chast- ening, The|spir- it made pure and|bright; *|
w: 4.~Af- ter the pain and|sick- ness, The|tears are all wiped a-|way; *|
 [DF][B,D][CE] [DF]2 [EG] | [DF]3 [DB]2 z | [FA][Fc][FB] [FA]2 [=EG] | F3- F2 z | %8
w: Af- ter the wea- ry|con- flict,|Peace on the Sav- ior’s|breast; *|
w: Af- ter the day of|sad- ness,|Hope sheds her bright- est|ray; *|
w: Af- ter the earth’s dark|sha- dow,|Clear in the light of|Light; *|
w: Af- ter the flowers are|ga- thered,|No more of earth’s de-|cay; *|
 [EF][EG][EF] [Ec]2 [DB] | [FB]3 [FA]2 [FB] | ([GB][GA])[GB] [=Ed]2 [Ec] | [Fc]3- [Fc]2 z | %12
w: Af- ter the care and|sor- row, The|glory * of light and|love; *|
w: Af- ter the strife and|strug- gle, The|vic- * to- ry is|won; *|
w: Af- ter the guid- ing|coun- sel, Com-|mun- * ion full and|sweet; *|
w: Af- ter the deep heart|sor- row, An|end * of ev- ery|strife; *|
 [Fd][Ge][Fd] ([Fd][Ec])[DB] | [EB]3 [EG]2 [EG] | [DF][DF][DF] [CF]2 [EF] | [DF]6 |] %16
w: Af- ter the wilder- * ness|jour- ney, The|Fa- ther’s bright home a-|bove.|
w: Af- ter the work * is|o- ver, The|Mas- ter’s own word, “Well|done.”|
w: Af- ter the will- * ing|ser- vice, All|laid at the Sav- ior’s|feet.|
w: Af- ter the dai- * ly|cross- es, A|glo- ri- ous crown of|life.|
V:2
 x6 | x6 | x6 | x6 | x6 | x6 | x6 | F3- F2 x | x6 | x6 | x6 | x6 | x6 | x6 | x6 | x6 |] %16
V:3
 [B,,F,][B,,F,][B,,F,] [B,,B,]2 [B,,B,] | [B,,B,]3 [B,,B,]2 [B,,D] | [F,D][F,C][F,B,] [F,A,]2 F, | %3
 [B,,F,]3- [B,,F,]2 z | [B,,F,][B,,F,][B,,F,] [B,,B,]2 [B,,B,] | [B,,B,]3 [B,,F,]2 z | %6
 [C,C][C,A,][C,D] [C,C]2 [C,B,] | [F,A,]3- [F,A,]2 z | [F,A,][F,B,][F,A,] [F,A,]2 [F,B,] | %9
 [F,D]3 [F,C]2 [B,D] | ([G,D][G,C])[G,D] [C,B,]2 [C,B,] | [F,A,]3- [F,A,]2 z | %12
 [B,,B,][B,,B,][B,,B,] [B,,_A,]2 [B,,A,] | [E,G,]3 [E,B,]2 [E,B,] | %14
 [F,B,][F,B,][F,B,] [F,A,]2 [F,C] | [B,,B,]6 |] %16
V:4
 x6 | x6 | x5 F, | x6 | x6 | x6 | x6 | x6 | x6 | x6 | x6 | x6 | x6 | x6 | x6 | x6 |] %16

